X:1043
T:Kitty's Rambles
R:double jig
N:"collected by F. O'Neill"
B:O'Neill's 1043
Z:Transcribed by henrik.norbeck@mailbox.swipnet.se
M:6/8
L:1/8
K:D
G|FED dcBA|dcd efg|fed dcAF|GAF GFE|
GFED c2 A|dcd efg|fed dcAG|Adc d2:|
A|dfa dfa|dfa afd|ceg ceg|ceg gfe|
fef gfg|afa gfe|fed dcAG|Adc d2:|
e|fgf efe|ded cAG|FGF EFE|DED GED|
AGA cAG|dcd efg|fed dcAG|Adc d2:|
f/g/|afd edcd|dfa agf|gec dcBc|ece gfe|
fdf ageg|agf efg|fed dcAG|Adc d2:|
